Sweet-Rainbow/icons/deluge.svg

<?xml version="1.0" encoding="UTF-8" standalone="no"?>
<!-- Generator: Gravit.io -->

<svg
   xmlns:dc="http://purl.org/dc/elements/1.1/"
   xmlns:cc="http://creativecommons.org/ns#"
   xmlns:rdf="http://www.w3.org/1999/02/22-rdf-syntax-ns#"
   xmlns:svg="http://www.w3.org/2000/svg"
   xmlns="http://www.w3.org/2000/svg"
   xmlns:sodipodi="http://sodipodi.sourceforge.net/DTD/sodipodi-0.dtd"
   xmlns:inkscape="http://www.inkscape.org/namespaces/inkscape"
   style="isolation:isolate"
   viewBox="0 0 36 36"
   width="48"
   height="48"
   version="1.1"
   id="svg11"
   sodipodi:docname="deluge.svg"
   inkscape:version="0.92.4 (5da689c313, 2019-01-14)">
  <metadata
     id="metadata17">
    <rdf:RDF>
      <cc:Work
         rdf:about="">
        <dc:format>image/svg+xml</dc:format>
        <dc:type
           rdf:resource="http://purl.org/dc/dcmitype/StillImage" />
        <dc:title></dc:title>
      </cc:Work>
    </rdf:RDF>
  </metadata>
  <defs
     id="defs15" />
  <sodipodi:namedview
     pagecolor="#ffffff"
     bordercolor="#666666"
     borderopacity="1"
     objecttolerance="10"
     gridtolerance="10"
     guidetolerance="10"
     inkscape:pageopacity="0"
     inkscape:pageshadow="2"
     inkscape:window-width="640"
     inkscape:window-height="480"
     id="namedview13"
     showgrid="false"
     inkscape:zoom="29.365243"
     inkscape:cx="25.325443"
     inkscape:cy="32"
     inkscape:current-layer="svg11"
     units="px" />
  <linearGradient
     id="_lgradient_8"
     x1="0.48629385"
     y1="1.027172"
     x2="0.50721693"
     y2="-0.034772921"
     gradientTransform="matrix(36.48,0,0,46,5.76,1)"
     gradientUnits="userSpaceOnUse">
    <stop
       offset="0%"
       stop-opacity="1"
       style="stop-color:rgb(84,51,255)"
       id="stop2" />
    <stop
       offset="51.73913043478261%"
       stop-opacity="1"
       style="stop-color:rgb(32,189,255)"
       id="stop4" />
    <stop
       offset="98.26086956521739%"
       stop-opacity="1"
       style="stop-color:rgb(165,254,203)"
       id="stop6" />
  </linearGradient>
  <g
     id="g825"
     transform="matrix(0.78260719,0,0,0.78260719,-0.78257256,-0.78260709)">
    <path
       id="path9"
       d="m 24.01,8.284 -8.779,13.423 c 2.037,-1.836 4.734,-2.696 7.294,-2.326 1.179,0.17 2.328,0.599 3.368,1.311 2.289,1.569 1.226,5.149 -1.547,5.215 -0.007,0.001 -0.016,0.003 -0.022,0.003 -2.305,0.082 -4.132,1.974 -4.134,4.28 0.002,2.175 1.631,4.004 3.791,4.255 0.646,0.126 1.375,0.08 2.285,-0.068 1.884,-0.315 4.624,-1.143 6.099,-2.397 3.707,-2.943 3.029,-6.213 0.802,-9.669 z M 25.222,4.97 36.245,20.797 C 40.03,26.234 39.99,32.105 37.438,36.538 34.887,40.972 29.864,44 24.004,44 18.144,44 13.118,40.972 10.564,36.538 8.01,32.105 7.968,26.234 11.758,20.801 L 22.777,5.001 C 23.837,3.661 24.27,3.682 25.222,4.97 Z M 27.69,3.26 38.7,19.08 c 1.15,1.62 2.04,3.4 2.67,5.29 0.57,1.75 0.86,3.57 0.87,5.41 0,2.9 -0.76,5.75 -2.2,8.26 -1.59,2.72 -3.87,4.97 -6.61,6.51 C 30.55,46.17 27.31,47.01 24,47 20.7,47.01 17.45,46.17 14.57,44.55 11.83,43.01 9.55,40.76 7.97,38.04 6.52,35.53 5.76,32.68 5.76,29.78 5.77,27.94 6.06,26.12 6.63,24.37 7.26,22.48 8.16,20.7 9.3,19.08 L 20.32,3.28 c 0.01,-0.02 0.03,-0.04 0.05,-0.06 0.32,-0.44 0.69,-0.85 1.11,-1.21 0.7,-0.63 1.61,-0.99 2.55,-1.01 0.97,0.01 1.9,0.39 2.61,1.05 0.39,0.36 0.74,0.77 1.05,1.21 z m -6.233,18.841 c -2.167,-0.097 -4.399,1.106 -5.726,3.497 -1.929,3.477 -1.686,7.643 1.095,10.627 4.041,4.336 9.989,3.532 12.888,0.496 -1.94,0.592 -3.678,0.837 -5.224,0.683 -0.005,0 -0.009,0 -0.014,0 -3.945,0 -7.143,-3.198 -7.143,-7.143 0.003,-3.515 2.562,-6.506 6.035,-7.051 0.299,-0.085 0.602,-0.147 0.911,-0.159 -0.866,-0.593 -1.837,-0.906 -2.822,-0.95 z"
       style="fill:url(#_lgradient_8);fill-rule:evenodd"
       inkscape:connector-curvature="0" />
  </g>
</svg>

<?xml version="1.0" encoding="UTF-8" standalone="no"?><!-- Generator: Gravit.io --><svg xmlns="http://www.w3.org/2000/svg" xmlns:xlink="http://www.w3.org/1999/xlink" style="isolation:isolate" viewBox="0 0 48 48" width="48pt" height="48pt"><linearGradient id="_lgradient_8" x1="0.48629385964912275" y1="1.0271719424465473" x2="0.507216950007763" y2="-0.03477292290063483" gradientTransform="matrix(36.48,0,0,46,5.76,1)" gradientUnits="userSpaceOnUse"><stop offset="0%" stop-opacity="1" style="stop-color:rgb(84,51,255)"/><stop offset="51.73913043478261%" stop-opacity="1" style="stop-color:rgb(32,189,255)"/><stop offset="98.26086956521739%" stop-opacity="1" style="stop-color:rgb(165,254,203)"/></linearGradient><path d=" M 24.01 8.284 L 15.231 21.707 C 17.268 19.871 19.965 19.011 22.525 19.381 C 23.704 19.551 24.853 19.98 25.893 20.692 C 28.182 22.261 27.119 25.841 24.346 25.907 C 24.339 25.908 24.33 25.91 24.324 25.91 C 22.019 25.992 20.192 27.884 20.19 30.19 C 20.192 32.365 21.821 34.194 23.981 34.445 C 24.627 34.571 25.356 34.525 26.266 34.377 C 28.15 34.062 30.89 33.234 32.365 31.98 C 36.072 29.037 35.394 25.767 33.167 22.311 L 24.01 8.284 L 24.01 8.284 Z  M 25.222 4.97 L 36.245 20.797 C 40.03 26.234 39.99 32.105 37.438 36.538 C 34.887 40.972 29.864 44 24.004 44 C 18.144 44 13.118 40.972 10.564 36.538 C 8.01 32.105 7.968 26.234 11.758 20.801 L 22.777 5.001 C 23.837 3.661 24.27 3.682 25.222 4.97 L 25.222 4.97 L 25.222 4.97 Z  M 27.69 3.26 L 38.7 19.08 C 39.85 20.7 40.74 22.48 41.37 24.37 C 41.94 26.12 42.23 27.94 42.24 29.78 C 42.24 32.68 41.48 35.53 40.04 38.04 C 38.45 40.76 36.17 43.01 33.43 44.55 C 30.55 46.17 27.31 47.01 24 47 C 20.7 47.01 17.45 46.17 14.57 44.55 C 11.83 43.01 9.55 40.76 7.97 38.04 C 6.52 35.53 5.76 32.68 5.76 29.78 C 5.77 27.94 6.06 26.12 6.63 24.37 C 7.26 22.48 8.16 20.7 9.3 19.08 L 20.32 3.28 C 20.33 3.26 20.35 3.24 20.37 3.22 C 20.69 2.78 21.06 2.37 21.48 2.01 C 22.18 1.38 23.09 1.02 24.03 1 C 25 1.01 25.93 1.39 26.64 2.05 C 27.03 2.41 27.38 2.82 27.69 3.26 L 27.69 3.26 L 27.69 3.26 Z  M 21.457 22.101 C 19.29 22.004 17.058 23.207 15.731 25.598 C 13.802 29.075 14.045 33.241 16.826 36.225 C 20.867 40.561 26.815 39.757 29.714 36.721 C 27.774 37.313 26.036 37.558 24.49 37.404 C 24.485 37.404 24.481 37.404 24.476 37.404 C 20.531 37.404 17.333 34.206 17.333 30.261 C 17.336 26.746 19.895 23.755 23.368 23.21 C 23.667 23.125 23.97 23.063 24.279 23.051 C 23.413 22.458 22.442 22.145 21.457 22.101 Z " fill-rule="evenodd" fill="url(#_lgradient_8)"/></svg>
